libs/ui/packages/crypto-icons/src/svg/REPV2.svg

<svg width="24" height="24" viewBox="0 0 24 24" fill="none">
<path fill-rule="evenodd" clip-rule="evenodd" d="M8.66245 11.4338L7.73245 10.83C7.69188 10.8037 7.66306 10.7626 7.65201 10.7155C7.64097 10.6684 7.64856 10.6189 7.6732 10.5772L11.2612 4.494C11.2935 4.43903 11.3395 4.39339 11.3947 4.36157C11.4499 4.32975 11.5125 4.31284 11.5762 4.3125H12.423C12.4867 4.31284 12.5492 4.32975 12.6045 4.36157C12.6597 4.39339 12.7057 4.43903 12.738 4.494L16.326 10.5772C16.3506 10.6189 16.3582 10.6684 16.3471 10.7155C16.3361 10.7626 16.3073 10.8037 16.2667 10.83L15.3367 11.4338C15.316 11.4469 15.2928 11.4558 15.2686 11.4598C15.2444 11.4638 15.2197 11.4629 15.1958 11.4572C15.1719 11.4515 15.1495 11.441 15.1297 11.4264C15.11 11.4118 15.0934 11.3934 15.081 11.3723L12.0787 6.28275C12.0706 6.26907 12.0591 6.25773 12.0453 6.24986C12.0315 6.24198 12.0159 6.23784 12 6.23784C11.9841 6.23784 11.9684 6.24198 11.9546 6.24986C11.9408 6.25773 11.9293 6.26907 11.9212 6.28275L8.91895 11.3723C8.90656 11.3936 8.88998 11.4122 8.87019 11.4269C8.85041 11.4416 8.82785 11.4522 8.80387 11.4579C8.77989 11.4637 8.75499 11.4645 8.73068 11.4603C8.70638 11.4562 8.68316 11.4471 8.66245 11.4338ZM17.2702 12.18L18.6982 14.601C18.747 14.6842 18.7621 14.7829 18.7405 14.8768C18.7189 14.9708 18.6621 15.053 18.582 15.1065L12.1995 19.254C12.1404 19.2927 12.0713 19.3132 12.0007 19.3132C11.9301 19.3132 11.861 19.2927 11.802 19.254L5.41945 15.1065C5.33855 15.0536 5.28122 14.9714 5.25942 14.8773C5.23761 14.7831 5.25303 14.6841 5.30245 14.601L6.73045 12.18C6.74284 12.1587 6.75943 12.1401 6.77921 12.1254C6.79899 12.1106 6.82156 12.1001 6.84554 12.0943C6.86952 12.0886 6.89442 12.0878 6.91872 12.0919C6.94303 12.0961 6.96624 12.1051 6.98695 12.1185L7.9162 12.7222C7.95678 12.7486 7.9856 12.7896 7.99664 12.8367C8.00769 12.8838 8.00009 12.9334 7.97545 12.975L7.15945 14.3588C7.14765 14.3797 7.14418 14.4043 7.14974 14.4276C7.1553 14.451 7.16949 14.4714 7.18945 14.4847L11.9505 17.5785C11.9805 17.5988 12.018 17.5988 12.0487 17.5785L16.8112 14.4847C16.8315 14.4716 16.8459 14.4512 16.8515 14.4278C16.857 14.4043 16.8534 14.3796 16.8412 14.3588L16.0252 12.975C16.0006 12.9334 15.993 12.8838 16.004 12.8367C16.0151 12.7896 16.0439 12.7486 16.0845 12.7222L17.0145 12.1185C17.0351 12.1052 17.0583 12.0963 17.0825 12.0922C17.1067 12.0881 17.1316 12.089 17.1554 12.0947C17.1793 12.1005 17.2018 12.111 17.2215 12.1256C17.2413 12.1403 17.2578 12.1588 17.2702 12.18Z" fill="#0E0E21"/>
<path fill-rule="evenodd" clip-rule="evenodd" d="M8.66254 11.6209L7.73255 11.0171C7.69197 10.9908 7.66315 10.9498 7.6521 10.9027C7.64106 10.8556 7.64865 10.806 7.6733 10.7644L11.2613 4.68113C11.2936 4.62616 11.3396 4.58052 11.3948 4.5487C11.45 4.51688 11.5126 4.49997 11.5763 4.49963H12.423C12.4868 4.49997 12.5493 4.51688 12.6046 4.5487C12.6598 4.58052 12.7058 4.62616 12.738 4.68113L16.326 10.7644C16.3507 10.806 16.3583 10.8556 16.3472 10.9027C16.3362 10.9498 16.3074 10.9908 16.2668 11.0171L15.3368 11.6209C15.3161 11.634 15.2929 11.6429 15.2687 11.6469C15.2445 11.651 15.2197 11.6501 15.1959 11.6443C15.172 11.6386 15.1496 11.6281 15.1298 11.6135C15.1101 11.5989 15.0935 11.5805 15.081 11.5594L12.0788 6.46988C12.0707 6.4562 12.0592 6.44487 12.0454 6.43699C12.0316 6.42912 12.0159 6.42497 12 6.42497C11.9841 6.42497 11.9685 6.42912 11.9547 6.43699C11.9409 6.44487 11.9294 6.4562 11.9213 6.46988L8.91904 11.5594C8.90666 11.5807 8.89007 11.5993 8.87029 11.614C8.8505 11.6287 8.82794 11.6393 8.80396 11.645C8.77998 11.6508 8.75508 11.6516 8.73078 11.6475C8.70647 11.6433 8.68326 11.6343 8.66254 11.6209ZM17.2703 12.3671L18.6983 14.7881C18.747 14.8713 18.7622 14.97 18.7406 15.064C18.7189 15.1579 18.6622 15.2401 18.582 15.2936L12.1995 19.4411C12.1405 19.4798 12.0714 19.5004 12.0008 19.5004C11.9302 19.5004 11.8611 19.4798 11.802 19.4411L5.41955 15.2936C5.33864 15.2407 5.28131 15.1586 5.25951 15.0644C5.23771 14.9702 5.25313 14.8712 5.30255 14.7881L6.73055 12.3671C6.74293 12.3458 6.75952 12.3272 6.7793 12.3125C6.79909 12.2978 6.82165 12.2872 6.84563 12.2815C6.86961 12.2757 6.89451 12.2749 6.91881 12.2791C6.94312 12.2832 6.96633 12.2922 6.98705 12.3056L7.9163 12.9094C7.95687 12.9357 7.98569 12.9767 7.99674 13.0238C8.00778 13.071 8.00018 13.1205 7.97554 13.1621L7.15954 14.5459C7.14774 14.5668 7.14427 14.5914 7.14983 14.6148C7.1554 14.6381 7.16958 14.6585 7.18955 14.6719L11.9505 17.7656C11.9805 17.7859 12.018 17.7859 12.0488 17.7656L16.8113 14.6719C16.8315 14.6588 16.846 14.6384 16.8516 14.6149C16.8571 14.5914 16.8535 14.5667 16.8413 14.5459L16.0253 13.1621C16.0007 13.1205 15.9931 13.071 16.0041 13.0238C16.0151 12.9767 16.044 12.9357 16.0845 12.9094L17.0145 12.3056C17.0352 12.2924 17.0584 12.2834 17.0826 12.2793C17.1068 12.2753 17.1316 12.2761 17.1555 12.2819C17.1794 12.2876 17.2019 12.2981 17.2216 12.3128C17.2413 12.3274 17.2579 12.3459 17.2703 12.3671Z" fill="#0E0E21"/>
</svg>

<svg width="24" height="24" viewBox="0 0 24 24" fill="none"><path fill="#0e0e21" fill-rule="evenodd" d="m8.662 11.434-.93-.604a.19.19 0 0 1-.059-.253l3.588-6.083a.37.37 0 0 1 .315-.181h.847a.37.37 0 0 1 .315.181l3.588 6.083a.187.187 0 0 1-.06.253l-.93.604a.183.183 0 0 1-.255-.062l-3.002-5.09a.092.092 0 0 0-.158 0l-3.002 5.09a.18.18 0 0 1-.257.062m8.608.746 1.428 2.421a.38.38 0 0 1-.116.505L12.2 19.255a.36.36 0 0 1-.398 0l-6.383-4.148a.375.375 0 0 1-.117-.505L6.73 12.18a.18.18 0 0 1 .257-.062l.93.604a.19.19 0 0 1 .058.253l-.816 1.384a.095.095 0 0 0 .03.126l4.762 3.093c.03.02.067.02.098 0l4.762-3.093a.094.094 0 0 0 .03-.126l-.816-1.384a.19.19 0 0 1 .06-.253l.93-.604a.18.18 0 0 1 .255.062" clip-rule="evenodd"/><path fill="#0e0e21" fill-rule="evenodd" d="m8.663 11.62-.93-.603a.187.187 0 0 1-.06-.253l3.588-6.083a.37.37 0 0 1 .315-.181h.847a.37.37 0 0 1 .315.181l3.588 6.083a.187.187 0 0 1-.06.253l-.93.604a.183.183 0 0 1-.255-.062l-3.002-5.09a.092.092 0 0 0-.158 0L8.92 11.56a.18.18 0 0 1-.256.062m8.607.747 1.428 2.421a.38.38 0 0 1-.116.506L12.2 19.44a.36.36 0 0 1-.398 0L5.42 15.294a.375.375 0 0 1-.117-.506l1.428-2.42a.18.18 0 0 1 .256-.062l.93.603a.187.187 0 0 1 .059.253l-.816 1.384a.095.095 0 0 0 .03.126l4.76 3.094c.03.02.068.02.099 0l4.762-3.094a.094.094 0 0 0 .03-.126l-.816-1.384a.19.19 0 0 1 .06-.253l.93-.603a.18.18 0 0 1 .207.007q.03.022.048.054" clip-rule="evenodd"/></svg>
